icons/square/48/pure-maps.svg

<svg version="1.1" viewBox="0 0 48 48" xmlns="http://www.w3.org/2000/svg">
 <defs>
  <linearGradient id="bg" x2="0" y1="1" y2="47" gradientUnits="userSpaceOnUse">
   <stop style="stop-color:#c4c4c4" offset="0"/>
   <stop style="stop-color:#bababa" offset="1"/>
  </linearGradient>
 </defs>
 <path d="m1 43v0.25c0 2.216 1.784 4 4 4h38c2.216 0 4-1.784 4-4v-0.25c0 2.216-1.784 4-4 4h-38c-2.216 0-4-1.784-4-4zm0 0.5v0.5c0 2.216 1.784 4 4 4h38c2.216 0 4-1.784 4-4v-0.5c0 2.216-1.784 4-4 4h-38c-2.216 0-4-1.784-4-4z" style="opacity:.02"/>
 <path d="m1 43.25v0.25c0 2.216 1.784 4 4 4h38c2.216 0 4-1.784 4-4v-0.25c0 2.216-1.784 4-4 4h-38c-2.216 0-4-1.784-4-4z" style="opacity:.05"/>
 <path d="m1 43v0.25c0 2.216 1.784 4 4 4h38c2.216 0 4-1.784 4-4v-0.25c0 2.216-1.784 4-4 4h-38c-2.216 0-4-1.784-4-4z" style="opacity:.1"/>
 <rect x="1" y="1" width="46" height="46" rx="4" style="fill:url(#bg)"/>
 <path d="m1 39v4c0 2.216 1.784 4 4 4h38c2.216 0 4-1.784 4-4v-4c0 2.216-1.784 4-4 4h-38c-2.216 0-4-1.784-4-4z" style="opacity:.1"/>
 <path d="m24 11a13 13 0 0 0-13 13 13 13 0 0 0 13 13 13 13 0 0 0 13-13v-13z" style="opacity:.1;paint-order:normal"/>
 <path d="m24 10a13 13 0 0 0-13 13 13 13 0 0 0 13 13 13 13 0 0 0 13-13v-13z" style="fill:#3a61f2;paint-order:normal"/>
 <path d="m24 16a8 8 0 0 0-8 8 8 8 0 0 0 8 8 8 8 0 0 0 8-8 8 8 0 0 0-8-8zm0 4a4 4 0 0 1 4 4 4 4 0 0 1-4 4 4 4 0 0 1-4-4 4 4 0 0 1 4-4z" style="opacity:.1;paint-order:normal"/>
 <path d="m24 15a8 8 0 0 0-8 8 8 8 0 0 0 8 8 8 8 0 0 0 8-8 8 8 0 0 0-8-8zm0 4a4 4 0 0 1 4 4 4 4 0 0 1-4 4 4 4 0 0 1-4-4 4 4 0 0 1 4-4z" style="fill:#f9f9f9;paint-order:normal"/>
</svg>

<?xml version="1.0" encoding="UTF-8" standalone="no"?>
<svg
   xmlns:dc="http://purl.org/dc/elements/1.1/"
   xmlns:cc="http://creativecommons.org/ns#"
   xmlns:rdf="http://www.w3.org/1999/02/22-rdf-syntax-ns#"
   xmlns:svg="http://www.w3.org/2000/svg"
   xmlns="http://www.w3.org/2000/svg"
   xmlns:sodipodi="http://sodipodi.sourceforge.net/DTD/sodipodi-0.dtd"
   xmlns:inkscape="http://www.inkscape.org/namespaces/inkscape"
   version="1.1"
   viewBox="0 0 48 48"
   id="svg23"
   sodipodi:docname="pure-maps.svg"
   inkscape:version="0.92.4 5da689c313, 2019-01-14">
  <metadata
     id="metadata27">
    <rdf:RDF>
      <cc:Work
         rdf:about="">
        <dc:format>image/svg+xml</dc:format>
        <dc:type
           rdf:resource="http://purl.org/dc/dcmitype/StillImage" />
        <dc:title></dc:title>
      </cc:Work>
    </rdf:RDF>
  </metadata>
  <sodipodi:namedview
     pagecolor="#ffffff"
     bordercolor="#666666"
     borderopacity="1"
     objecttolerance="10"
     gridtolerance="10"
     guidetolerance="10"
     inkscape:pageopacity="0"
     inkscape:pageshadow="2"
     inkscape:window-width="3840"
     inkscape:window-height="2018"
     id="namedview25"
     showgrid="false"
     inkscape:zoom="19.666667"
     inkscape:cx="-3.9537383"
     inkscape:cy="24"
     inkscape:window-x="0"
     inkscape:window-y="68"
     inkscape:window-maximized="1"
     inkscape:current-layer="svg23" />
  <defs
     id="defs7">
    <linearGradient
       id="bg"
       x2="0"
       y1="1"
       y2="47"
       gradientUnits="userSpaceOnUse">
      <stop
         style="stop-color:#c4c4c4;stop-opacity:1"
         offset="0"
         id="stop2" />
      <stop
         style="stop-color:#bababa;stop-opacity:1"
         offset="1"
         id="stop4" />
    </linearGradient>
  </defs>
  <path
     d="m1 43v0.25c0 2.216 1.784 4 4 4h38c2.216 0 4-1.784 4-4v-0.25c0 2.216-1.784 4-4 4h-38c-2.216 0-4-1.784-4-4zm0 0.5v0.5c0 2.216 1.784 4 4 4h38c2.216 0 4-1.784 4-4v-0.5c0 2.216-1.784 4-4 4h-38c-2.216 0-4-1.784-4-4z"
     style="opacity:.02"
     id="path9" />
  <path
     d="m1 43.25v0.25c0 2.216 1.784 4 4 4h38c2.216 0 4-1.784 4-4v-0.25c0 2.216-1.784 4-4 4h-38c-2.216 0-4-1.784-4-4z"
     style="opacity:.05"
     id="path11" />
  <path
     d="m1 43v0.25c0 2.216 1.784 4 4 4h38c2.216 0 4-1.784 4-4v-0.25c0 2.216-1.784 4-4 4h-38c-2.216 0-4-1.784-4-4z"
     style="opacity:.1"
     id="path13" />
  <rect
     x="1"
     y="1"
     width="46"
     height="46"
     rx="4"
     style="fill:url(#bg)"
     id="rect15" />
  <path
     d="m1 39v4c0 2.216 1.784 4 4 4h38c2.216 0 4-1.784 4-4v-4c0 2.216-1.784 4-4 4h-38c-2.216 0-4-1.784-4-4z"
     style="opacity:.1"
     id="path17" />
  <path
     inkscape:connector-curvature="0"
     id="path845"
     d="M 24,11 A 13,13 0 0 0 11,24 13,13 0 0 0 24,37 13,13 0 0 0 37,24 V 11 Z"
     style="display:inline;opacity:0.1;fill:#000000;fill-opacity:1;stroke:none;stroke-width:4;stroke-linecap:round;stroke-linejoin:round;stroke-miterlimit:4;stroke-dasharray:none;stroke-dashoffset:0;stroke-opacity:0.46401517;paint-order:normal" />
  <path
     style="display:inline;opacity:1;fill:#3a61f2;fill-opacity:1;stroke:none;stroke-width:4;stroke-linecap:round;stroke-linejoin:round;stroke-miterlimit:4;stroke-dasharray:none;stroke-dashoffset:0;stroke-opacity:0.46401517;paint-order:normal"
     d="M 24,10 A 13,13 0 0 0 11,23 13,13 0 0 0 24,36 13,13 0 0 0 37,23 V 10 Z"
     id="path835"
     inkscape:connector-curvature="0" />
  <path
     inkscape:connector-curvature="0"
     id="path847"
     d="m 24,16 a 8,8 0 0 0 -8,8 8,8 0 0 0 8,8 8,8 0 0 0 8,-8 8,8 0 0 0 -8,-8 z m 0,4 a 4,4 0 0 1 4,4 4,4 0 0 1 -4,4 4,4 0 0 1 -4,-4 4,4 0 0 1 4,-4 z"
     style="display:inline;opacity:0.1;fill:#000000;fill-opacity:1;stroke:none;stroke-width:3.88056993;stroke-linecap:round;stroke-linejoin:round;stroke-miterlimit:4;stroke-dasharray:none;stroke-dashoffset:0;stroke-opacity:0.46401517;paint-order:normal" />
  <path
     style="display:inline;opacity:1;fill:#f9f9f9;fill-opacity:1;stroke:none;stroke-width:3.88056993;stroke-linecap:round;stroke-linejoin:round;stroke-miterlimit:4;stroke-dasharray:none;stroke-dashoffset:0;stroke-opacity:0.46401517;paint-order:normal"
     d="m 24,15 a 8,8 0 0 0 -8,8 8,8 0 0 0 8,8 8,8 0 0 0 8,-8 8,8 0 0 0 -8,-8 z m 0,4 a 4,4 0 0 1 4,4 4,4 0 0 1 -4,4 4,4 0 0 1 -4,-4 4,4 0 0 1 4,-4 z"
     id="path840"
     inkscape:connector-curvature="0" />
</svg>
